react/features/base/icons/svg/gauge.svg

<?xml version="1.0" encoding="UTF-8" standalone="no"?>
<svg
   width="40"
   height="40"
   viewBox="0 0 40 40"
   fill="none"
   version="1.1"
   id="svg18575"
   sodipodi:docname="gauge.svg"
   inkscape:version="1.1.1 (c3084ef, 2021-09-22)"
   xmlns:inkscape="http://www.inkscape.org/namespaces/inkscape"
   xmlns:sodipodi="http://sodipodi.sourceforge.net/DTD/sodipodi-0.dtd"
   xmlns="http://www.w3.org/2000/svg"
   xmlns:svg="http://www.w3.org/2000/svg">
  <defs
     id="defs18579" />
  <sodipodi:namedview
     id="namedview18577"
     pagecolor="#ffffff"
     bordercolor="#666666"
     borderopacity="1.0"
     inkscape:pageshadow="2"
     inkscape:pageopacity="0.0"
     inkscape:pagecheckerboard="0"
     showgrid="false"
     width="40px"
     inkscape:snap-others="false"
     inkscape:snap-nodes="false"
     inkscape:snap-global="false"
     inkscape:zoom="12.475"
     inkscape:cx="19.118236"
     inkscape:cy="17.755511"
     inkscape:window-width="1280"
     inkscape:window-height="725"
     inkscape:window-x="0"
     inkscape:window-y="23"
     inkscape:window-maximized="1"
     inkscape:current-layer="svg18575" />
  <mask
     id="path-1-outside-1"
     maskUnits="userSpaceOnUse"
     x="0.666687"
     y="1.5"
     width="18"
     height="16"
     fill="#000000">
    <rect
       fill="#ffffff"
       x="0.66668701"
       y="1.5"
       width="18"
       height="16"
       id="rect18566" />
    <path
       fill-rule="evenodd"
       clip-rule="evenodd"
       d="m 10,4.01515 c -1.34849,0 -2.66671,0.39988 -3.78796,1.14907 C 5.0908,5.91341 4.2169,6.97827 3.70084,8.22413 3.18479,9.46998 3.04977,10.8409 3.31285,12.1635 3.57593,13.4861 4.2253,14.701 5.17884,15.6545 L 4.10747,16.7259 C 2.94203,15.5604 2.14836,14.0756 1.82681,12.4591 1.50527,10.8426 1.6703,9.16702 2.30103,7.6443 2.93176,6.12159 3.99986,4.8201 5.37027,3.90442 6.74068,2.98874 8.35184,2.5 10,2.5 c 1.6482,0 3.2594,0.48874 4.6298,1.40442 1.3704,0.91568 2.4385,2.21717 3.0692,3.73988 0.6307,1.52272 0.7958,3.1983 0.4742,4.8148 -0.3215,1.6165 -1.1152,3.1013 -2.2806,4.2668 l -1.0714,-1.0714 c 0.9535,-0.9535 1.6029,-2.1684 1.866,-3.491 0.2631,-1.3226 0.128,-2.69352 -0.388,-3.93937 C 15.7831,6.97827 14.9092,5.91341 13.788,5.16422 12.6668,4.41503 11.3485,4.01515 10,4.01515 Z M 9.55624,12.0731 8.48487,11.0017 h -1e-5 l 1.07137,1.0714 z M 13.6591,7.83508 12.7229,6.89887 8.04131,10.9867 9.57123,12.5166 Z"
       id="path18568" />
  </mask>
  <path
     fill-rule="evenodd"
     clip-rule="evenodd"
     d="m 20.581149,3.297107 c -2.298547,0 -4.545498,0.6810083 -6.456707,1.9569026 -1.911193,1.2758942 -3.400785,3.0893846 -4.2804274,5.2111234 -0.8796249,2.121722 -1.1097712,4.456442 -0.6613424,6.708872 0.4484289,2.252429 1.5553028,4.321443 3.1806438,5.945283 l -1.826187,1.824628 C 8.5505969,22.959033 7.197759,20.430371 6.6496661,17.677421 6.1015901,14.92447 6.3828894,12.070905 7.4579904,9.4776639 8.5330912,6.8844409 10.353704,4.6679623 12.689615,3.1085303 c 2.335912,-1.559432 5.08219,-2.39177162 7.891534,-2.39177162 2.809414,0 5.555761,0.83233962 7.891654,2.39177162 2.335894,1.559432 4.156508,3.7759106 5.231556,6.3691336 1.075051,2.5932411 1.356469,5.4468061 0.808291,8.1997571 -0.548008,2.75295 -1.900897,5.281612 -3.887361,7.266495 l -1.826238,-1.824628 c 1.625274,-1.62384 2.732198,-3.692854 3.180661,-5.945283 0.448463,-2.25243 0.21818,-4.58715 -0.66136,-6.708872 C 30.438642,8.3433942 28.949049,6.5299038 27.037926,5.2540096 25.126802,3.9781153 22.879715,3.297107 20.581149,3.297107 Z m -0.756403,13.722944 -1.826187,-1.824628 h -1.7e-5 l 1.826187,1.824628 z m 6.993465,-7.2174828 -1.595785,-1.5943946 -7.97993,6.9617034 2.607801,2.605468 z"
     fill="#ffffff"
     id="path18571"
     style="fill:#ffffff;stroke-width:1.70378" />
  <path
     d="M 6.21204,5.16422 6.10093,4.99793 Z m -2.5112,3.05991 0.18478,0.07653 z m -0.38799,3.93937 0.19616,-0.039 z m 1.86599,3.491 0.14142,0.1414 0.14142,-0.1414 -0.14142,-0.1414 z m -1.07137,1.0714 -0.14142,0.1414 0.14142,0.1414 0.14142,-0.1414 z M 1.82681,12.4591 1.63066,12.4981 Z M 2.30103,7.6443 2.11625,7.56777 v 0 z M 5.37027,3.90442 5.48138,4.07071 v 0 z m 9.25953,0 -0.1111,0.16629 z M 17.699,7.6443 17.8838,7.56777 Z m 0.4742,4.8148 0.1962,0.039 z m -2.2806,4.2668 -0.1414,0.1414 0.1414,0.1414 0.1414,-0.1414 z m -1.0714,-1.0714 -0.1414,-0.1414 -0.1414,0.1414 0.1414,0.1414 z m 1.866,-3.491 0.1961,0.039 z M 16.2992,8.22413 16.484,8.14759 Z M 13.788,5.16422 13.8991,4.99793 Z M 8.48487,11.0017 8.62629,10.8603 8.39598,10.63 8.29477,10.9396 Z m 1.07137,1.0714 0.1901,0.0621 L 9.7845,12.0185 9.69766,11.9317 Z M 8.48486,11.0017 8.29476,10.9396 8.2566,11.0563 8.34344,11.1431 Z m 1.07137,1.0714 -0.14142,0.1414 0.23031,0.2303 0.10121,-0.3095 z M 12.7229,6.89887 12.8643,6.75745 12.7321,6.62528 12.5913,6.74822 Z m 0.9362,0.93621 0.1506,0.13154 0.123,-0.1408 -0.1322,-0.13217 z m -5.61779,3.15162 -0.13154,-0.1506 -0.1612,0.1407 0.15132,0.1514 z m 1.52992,1.5299 -0.14142,0.1415 0.15132,0.1513 0.14075,-0.1612 z M 6.32316,5.33051 C 7.41151,4.6033 8.69107,4.21515 10,4.21515 v -0.4 c -1.38805,0 -2.74494,0.41161 -3.89907,1.18278 z M 3.88562,8.30066 C 4.38653,7.09135 5.2348,6.05773 6.32316,5.33051 L 6.10093,4.99793 C 4.9468,5.76909 4.04726,6.86518 3.51607,8.14759 Z M 3.50901,12.1245 C 3.25364,10.8407 3.38471,9.50998 3.88562,8.30066 L 3.51607,8.14759 C 2.98488,9.42999 2.8459,10.8411 3.11669,12.2025 Z m 1.81125,3.3886 C 4.39469,14.5875 3.76437,13.4083 3.50901,12.1245 l -0.39232,0.078 c 0.2708,1.3614 0.93922,2.6119 1.92073,3.5934 z M 4.24889,16.8673 5.32026,15.7959 5.03742,15.5131 3.96604,16.5845 Z M 1.63066,12.4981 c 0.32926,1.6553 1.14198,3.1758 2.33539,4.3692 L 4.24889,16.5845 C 3.11142,15.447 2.3368,13.9978 2.02297,12.4201 Z M 2.11625,7.56777 C 1.47038,9.12703 1.3014,10.8428 1.63066,12.4981 l 0.39231,-0.078 C 1.70914,10.8424 1.87021,9.20701 2.4858,7.72084 Z M 5.25916,3.73813 C 3.85586,4.67578 2.76212,6.0085 2.11625,7.56777 L 2.4858,7.72084 C 3.1014,6.23467 4.14387,4.96441 5.48138,4.07071 Z M 10,2.3 C 8.31229,2.3 6.66246,2.80047 5.25916,3.73813 L 5.48138,4.07071 C 6.8189,3.17701 8.3914,2.7 10,2.7 Z m 4.7409,1.43813 C 13.3376,2.80047 11.6878,2.3 10,2.3 v 0.4 c 1.6086,0 3.1811,0.47701 4.5187,1.37071 z m 3.1429,3.82964 C 17.2379,6.0085 16.1442,4.67578 14.7409,3.73813 l -0.2222,0.33258 c 1.3375,0.8937 2.3799,2.16396 2.9955,3.65013 z m 0.4856,4.93033 c 0.3292,-1.6553 0.1603,-3.37107 -0.4856,-4.93033 l -0.3696,0.15307 c 0.6156,1.48617 0.7767,3.12156 0.4629,4.69926 z m -2.3354,4.3692 c 1.1934,-1.1934 2.0061,-2.7139 2.3354,-4.3692 l -0.3923,-0.078 c -0.3139,1.5777 -1.0885,3.0269 -2.2259,4.1644 z m -1.3542,-1.0714 1.0714,1.0714 0.2828,-0.2828 -1.0714,-1.0714 z m 1.8112,-3.6714 c -0.2553,1.2838 -0.8857,2.463 -1.8112,3.3886 l 0.2828,0.2828 c 0.9815,-0.9815 1.6499,-2.232 1.9207,-3.5934 z M 16.1144,8.30066 c 0.5009,1.20932 0.632,2.54004 0.3766,3.82384 l 0.3923,0.078 C 17.1541,10.8411 17.0152,9.42999 16.484,8.14759 Z M 13.6769,5.33051 c 1.0883,0.72722 1.9366,1.76084 2.4375,2.97015 L 16.484,8.14759 C 15.9528,6.86518 15.0532,5.76909 13.8991,4.99793 Z M 10,4.21515 c 1.309,0 2.5885,0.38815 3.6769,1.11536 L 13.8991,4.99793 C 12.745,4.22676 11.3881,3.81515 10,3.81515 Z M 8.34344,11.1431 9.41482,12.2145 9.69766,11.9317 8.62629,10.8603 Z m 0.33152,-0.0792 v 0 L 8.29477,10.9396 h -10e-6 z m 1.02269,0.8678 -1.07137,-1.0714 -0.28284,0.2828 1.07137,1.0714 z m -0.33151,0.0792 -10e-6,10e-5 0.3802,0.1243 10e-6,-1e-4 z M 12.5815,7.04029 13.5177,7.9765 13.8005,7.69365 12.8643,6.75745 Z M 8.17286,11.1374 12.8544,7.04952 12.5913,6.74822 7.90977,10.8361 Z m 1.53979,1.2378 -1.52992,-1.5299 -0.28284,0.2829 1.52992,1.5299 z M 13.5084,7.70353 9.42058,12.3851 9.72188,12.6482 13.8097,7.96662 Z"
     fill="#ffffff"
     mask="url(#path-1-outside-1)"
     id="path18573"
     style="fill:#ffffff"
     transform="matrix(1.7045343,0,0,1.7030316,3.5358056,-3.5408204)" />
  <text
     xml:space="preserve"
     style="font-size:8px;line-height:1.25;font-family:sans-serif;fill:#ffffff"
     x="-0.14920853"
     y="38.050499"
     id="text19033"><tspan
       sodipodi:role="line"
       id="tspan19031"
       x="-0.14920853"
       y="38.050499"
       style="font-style:normal;font-variant:normal;font-weight:bold;font-stretch:normal;font-size:8px;font-family:sans-serif;-inkscape-font-specification:'sans-serif Bold';fill:#ffffff">QUALITY</tspan></text>
</svg>

<svg width="20" height="20" viewBox="0 0 20 20" fill="none" xmlns="http://www.w3.org/2000/svg">
<mask id="path-1-outside-1" maskUnits="userSpaceOnUse" x="0.666687" y="1.5" width="18" height="16" fill="black">
<rect fill="white" x="0.666687" y="1.5" width="18" height="16"/>
<path fill-rule="evenodd" clip-rule="evenodd" d="M10 4.01515C8.65151 4.01515 7.33329 4.41503 6.21204 5.16422C5.0908 5.91341 4.2169 6.97827 3.70084 8.22413C3.18479 9.46998 3.04977 10.8409 3.31285 12.1635C3.57593 13.4861 4.2253 14.701 5.17884 15.6545L4.10747 16.7259C2.94203 15.5604 2.14836 14.0756 1.82681 12.4591C1.50527 10.8426 1.6703 9.16702 2.30103 7.6443C2.93176 6.12159 3.99986 4.8201 5.37027 3.90442C6.74068 2.98874 8.35184 2.5 10 2.5C11.6482 2.5 13.2594 2.98874 14.6298 3.90442C16.0002 4.8201 17.0683 6.12159 17.699 7.6443C18.3297 9.16702 18.4948 10.8426 18.1732 12.4591C17.8517 14.0756 17.058 15.5604 15.8926 16.7259L14.8212 15.6545C15.7747 14.701 16.4241 13.4861 16.6872 12.1635C16.9503 10.8409 16.8152 9.46998 16.2992 8.22413C15.7831 6.97827 14.9092 5.91341 13.788 5.16422C12.6668 4.41503 11.3485 4.01515 10 4.01515ZM9.55624 12.0731L8.48487 11.0017L8.48486 11.0017L9.55623 12.0731L9.55624 12.0731ZM13.6591 7.83508L12.7229 6.89887L8.04131 10.9867L9.57123 12.5166L13.6591 7.83508Z"/>
</mask>
<path fill-rule="evenodd" clip-rule="evenodd" d="M10 4.01515C8.65151 4.01515 7.33329 4.41503 6.21204 5.16422C5.0908 5.91341 4.2169 6.97827 3.70084 8.22413C3.18479 9.46998 3.04977 10.8409 3.31285 12.1635C3.57593 13.4861 4.2253 14.701 5.17884 15.6545L4.10747 16.7259C2.94203 15.5604 2.14836 14.0756 1.82681 12.4591C1.50527 10.8426 1.6703 9.16702 2.30103 7.6443C2.93176 6.12159 3.99986 4.8201 5.37027 3.90442C6.74068 2.98874 8.35184 2.5 10 2.5C11.6482 2.5 13.2594 2.98874 14.6298 3.90442C16.0002 4.8201 17.0683 6.12159 17.699 7.6443C18.3297 9.16702 18.4948 10.8426 18.1732 12.4591C17.8517 14.0756 17.058 15.5604 15.8926 16.7259L14.8212 15.6545C15.7747 14.701 16.4241 13.4861 16.6872 12.1635C16.9503 10.8409 16.8152 9.46998 16.2992 8.22413C15.7831 6.97827 14.9092 5.91341 13.788 5.16422C12.6668 4.41503 11.3485 4.01515 10 4.01515ZM9.55624 12.0731L8.48487 11.0017L8.48486 11.0017L9.55623 12.0731L9.55624 12.0731ZM13.6591 7.83508L12.7229 6.89887L8.04131 10.9867L9.57123 12.5166L13.6591 7.83508Z" fill="white"/>
<path d="M6.21204 5.16422L6.10093 4.99793L6.21204 5.16422ZM3.70084 8.22413L3.88562 8.30066L3.70084 8.22413ZM3.31285 12.1635L3.50901 12.1245L3.31285 12.1635ZM5.17884 15.6545L5.32026 15.7959L5.46168 15.6545L5.32026 15.5131L5.17884 15.6545ZM4.10747 16.7259L3.96605 16.8673L4.10747 17.0087L4.24889 16.8673L4.10747 16.7259ZM1.82681 12.4591L1.63066 12.4981L1.82681 12.4591ZM2.30103 7.6443L2.11625 7.56777H2.11625L2.30103 7.6443ZM5.37027 3.90442L5.48138 4.07071V4.07071L5.37027 3.90442ZM14.6298 3.90442L14.5187 4.07071L14.6298 3.90442ZM17.699 7.6443L17.8838 7.56777L17.699 7.6443ZM18.1732 12.4591L18.3694 12.4981L18.1732 12.4591ZM15.8926 16.7259L15.7512 16.8673L15.8926 17.0087L16.034 16.8673L15.8926 16.7259ZM14.8212 15.6545L14.6798 15.5131L14.5384 15.6545L14.6798 15.7959L14.8212 15.6545ZM16.6872 12.1635L16.8833 12.2025L16.6872 12.1635ZM16.2992 8.22413L16.484 8.14759L16.2992 8.22413ZM13.788 5.16422L13.8991 4.99793L13.788 5.16422ZM8.48487 11.0017L8.62629 10.8603L8.39598 10.63L8.29477 10.9396L8.48487 11.0017ZM9.55624 12.0731L9.74634 12.1352L9.7845 12.0185L9.69766 11.9317L9.55624 12.0731ZM8.48486 11.0017L8.29476 10.9396L8.2566 11.0563L8.34344 11.1431L8.48486 11.0017ZM9.55623 12.0731L9.41481 12.2145L9.64512 12.4448L9.74633 12.1353L9.55623 12.0731ZM12.7229 6.89887L12.8643 6.75745L12.7321 6.62528L12.5913 6.74822L12.7229 6.89887ZM13.6591 7.83508L13.8097 7.96662L13.9327 7.82582L13.8005 7.69365L13.6591 7.83508ZM8.04131 10.9867L7.90977 10.8361L7.74857 10.9768L7.89989 11.1282L8.04131 10.9867ZM9.57123 12.5166L9.42981 12.6581L9.58113 12.8094L9.72188 12.6482L9.57123 12.5166ZM6.32316 5.33051C7.41151 4.6033 8.69107 4.21515 10 4.21515V3.81515C8.61195 3.81515 7.25506 4.22676 6.10093 4.99793L6.32316 5.33051ZM3.88562 8.30066C4.38653 7.09135 5.2348 6.05773 6.32316 5.33051L6.10093 4.99793C4.9468 5.76909 4.04726 6.86518 3.51607 8.14759L3.88562 8.30066ZM3.50901 12.1245C3.25364 10.8407 3.38471 9.50998 3.88562 8.30066L3.51607 8.14759C2.98488 9.42999 2.8459 10.8411 3.11669 12.2025L3.50901 12.1245ZM5.32026 15.5131C4.39469 14.5875 3.76437 13.4083 3.50901 12.1245L3.11669 12.2025C3.38749 13.5639 4.05591 14.8144 5.03742 15.7959L5.32026 15.5131ZM4.24889 16.8673L5.32026 15.7959L5.03742 15.5131L3.96604 16.5845L4.24889 16.8673ZM1.63066 12.4981C1.95992 14.1534 2.77264 15.6739 3.96605 16.8673L4.24889 16.5845C3.11142 15.447 2.3368 13.9978 2.02297 12.4201L1.63066 12.4981ZM2.11625 7.56777C1.47038 9.12703 1.3014 10.8428 1.63066 12.4981L2.02297 12.4201C1.70914 10.8424 1.87021 9.20701 2.4858 7.72084L2.11625 7.56777ZM5.25916 3.73813C3.85586 4.67578 2.76212 6.0085 2.11625 7.56777L2.4858 7.72084C3.1014 6.23467 4.14387 4.96441 5.48138 4.07071L5.25916 3.73813ZM10 2.3C8.31229 2.3 6.66246 2.80047 5.25916 3.73813L5.48138 4.07071C6.8189 3.17701 8.3914 2.7 10 2.7V2.3ZM14.7409 3.73813C13.3376 2.80047 11.6878 2.3 10 2.3V2.7C11.6086 2.7 13.1811 3.17701 14.5187 4.07071L14.7409 3.73813ZM17.8838 7.56777C17.2379 6.0085 16.1442 4.67578 14.7409 3.73813L14.5187 4.07071C15.8562 4.96441 16.8986 6.23467 17.5142 7.72084L17.8838 7.56777ZM18.3694 12.4981C18.6986 10.8428 18.5297 9.12703 17.8838 7.56777L17.5142 7.72084C18.1298 9.20701 18.2909 10.8424 17.9771 12.4201L18.3694 12.4981ZM16.034 16.8673C17.2274 15.6739 18.0401 14.1534 18.3694 12.4981L17.9771 12.4201C17.6632 13.9978 16.8886 15.447 15.7512 16.5845L16.034 16.8673ZM14.6798 15.7959L15.7512 16.8673L16.034 16.5845L14.9626 15.5131L14.6798 15.7959ZM16.491 12.1245C16.2357 13.4083 15.6053 14.5875 14.6798 15.5131L14.9626 15.7959C15.9441 14.8144 16.6125 13.5639 16.8833 12.2025L16.491 12.1245ZM16.1144 8.30066C16.6153 9.50998 16.7464 10.8407 16.491 12.1245L16.8833 12.2025C17.1541 10.8411 17.0152 9.42999 16.484 8.14759L16.1144 8.30066ZM13.6769 5.33051C14.7652 6.05773 15.6135 7.09135 16.1144 8.30066L16.484 8.14759C15.9528 6.86518 15.0532 5.76909 13.8991 4.99793L13.6769 5.33051ZM10 4.21515C11.309 4.21515 12.5885 4.6033 13.6769 5.33051L13.8991 4.99793C12.745 4.22676 11.3881 3.81515 10 3.81515V4.21515ZM8.34344 11.1431L9.41482 12.2145L9.69766 11.9317L8.62629 10.8603L8.34344 11.1431ZM8.67496 11.0639L8.67496 11.0639L8.29477 10.9396L8.29476 10.9396L8.67496 11.0639ZM9.69765 11.9317L8.62628 10.8603L8.34344 11.1431L9.41481 12.2145L9.69765 11.9317ZM9.36614 12.0109L9.36613 12.011L9.74633 12.1353L9.74634 12.1352L9.36614 12.0109ZM12.5815 7.04029L13.5177 7.9765L13.8005 7.69365L12.8643 6.75745L12.5815 7.04029ZM8.17286 11.1374L12.8544 7.04952L12.5913 6.74822L7.90977 10.8361L8.17286 11.1374ZM9.71265 12.3752L8.18273 10.8453L7.89989 11.1282L9.42981 12.6581L9.71265 12.3752ZM13.5084 7.70353L9.42058 12.3851L9.72188 12.6482L13.8097 7.96662L13.5084 7.70353Z" fill="white" mask="url(#path-1-outside-1)"/>
</svg>
